app/img/benefits-1.svg

<svg width="90" height="90" viewBox="0 0 90 90" fill="none" xmlns="http://www.w3.org/2000/svg">
<g clip-path="url(#clip0)">
<path d="M89.0847 5.57071C88.5099 4.98128 87.7201 4.65081 86.8968 4.65519H3.10367C2.28034 4.65081 1.4906 4.98128 0.915743 5.57071C0.326307 6.14557 -0.00415452 6.93531 0.000226109 7.75864V72.9311C-0.00415452 73.7544 0.326307 74.5441 0.915743 75.119C1.4906 75.7084 2.28034 76.0389 3.10367 76.0345H85.3451C87.916 76.0345 90.0002 73.9503 90.0002 71.3793V7.75864C90.0046 6.93531 89.6741 6.14557 89.0847 5.57071Z" fill="#F3D55B"/>
<path d="M90 7.75861V71.3793C90.0001 72.6138 89.5087 73.7975 88.6344 74.669L82.2413 68.2759V12.4138L89.0844 5.57068C89.6739 6.14553 90.0043 6.93528 90 7.75861Z" fill="#FDBF00"/>
<path d="M7.7586 12.4138V68.2758L0.915499 75.1189C0.326063 74.5441 -0.00439866 73.7543 -1.80312e-05 72.931V7.75861C-0.00439866 6.93528 0.326063 6.14553 0.915499 5.57068L7.7586 12.4138Z" fill="#FDBF00"/>
<path d="M88.6345 74.6689C87.763 75.5431 86.5793 76.0345 85.3448 76.0344H3.10346C2.28013 76.0388 1.49038 75.7083 0.915527 75.1189L7.75863 68.2758H82.2414L88.6345 74.6689Z" fill="#FF9F00"/>
<path d="M7.75861 12.4138H82.2414V68.2759H7.75861V12.4138Z" fill="#ECF0F1"/>
<path d="M82.2414 12.4138C82.2414 12.4138 7.75861 12.4138 7.75861 68.2759V12.4138H82.2414Z" fill="white"/>
<path d="M55.8621 23.2758H34.1379C33.2809 23.2758 32.5862 22.5811 32.5862 21.7241C32.5862 20.8671 33.2809 20.1724 34.1379 20.1724H55.8621C56.719 20.1724 57.4138 20.8671 57.4138 21.7241C57.4138 22.5811 56.719 23.2758 55.8621 23.2758Z" fill="#BDC3C7"/>
<path d="M40.3448 57.4137H18.6207C17.7637 57.4137 17.069 56.719 17.069 55.862C17.069 55.005 17.7637 54.3103 18.6207 54.3103H40.3448C41.2018 54.3103 41.8966 55.005 41.8966 55.862C41.8966 56.719 41.2018 57.4137 40.3448 57.4137Z" fill="#95A5A5"/>
<path d="M60.5172 31.0345H29.4828C28.6258 31.0345 27.931 30.3398 27.931 29.4828C27.931 28.6258 28.6258 27.931 29.4828 27.931H60.5172C61.3742 27.931 62.0689 28.6258 62.0689 29.4828C62.0689 30.3398 61.3742 31.0345 60.5172 31.0345Z" fill="#BDC3C7"/>
<path d="M54.3103 62.6896L54.3103 82.8309C54.3066 83.3715 54.5844 83.8751 55.0437 84.1602C55.503 84.4453 56.0776 84.4708 56.5603 84.2275L60.5948 82.1947C61.035 81.9775 61.5512 81.9775 61.9914 82.1947L66.0259 84.2275C66.5086 84.4708 67.0832 84.4453 67.5425 84.1602C68.0018 83.8751 68.2796 83.3715 68.2759 82.8309L68.2759 62.6896H54.3103Z" fill="#FF1F3D"/>
<path d="M40.3448 51.2068C36.5452 51.2069 32.8098 50.2267 29.4998 48.361C26.1843 50.2435 22.4334 51.2247 18.6207 51.2068C17.7637 51.2068 17.069 50.5121 17.069 49.6551C17.069 48.7981 17.7637 48.1034 18.6207 48.1034C21.402 48.1157 24.1515 47.511 26.671 46.3329C25.0605 45.0983 24.0304 43.2542 23.8236 41.2355C23.8236 40.3044 24.2317 37.2413 29.4828 37.2413C34.7338 37.2413 35.1419 40.2982 35.1419 41.2355C34.9362 43.2567 33.9068 45.1039 32.296 46.3422C34.8165 47.515 37.5649 48.1164 40.3448 48.1034C41.2018 48.1034 41.8966 48.7981 41.8966 49.6551C41.8966 50.5121 41.2018 51.2068 40.3448 51.2068ZM29.4828 40.3448C28.3035 40.3448 26.9271 40.5775 26.9271 41.2355C26.9271 41.8934 27.6238 43.2186 29.4704 44.64C31.1214 43.3768 32.0385 42.0563 32.0385 41.2355C32.0385 40.5775 30.6621 40.3448 29.4828 40.3448Z" fill="#95A5A5"/>
<path d="M76.0345 51.9827C76.0345 53.7719 72.6936 54.8813 72.0481 56.4377C71.3793 58.05 72.931 61.1922 71.716 62.4072C70.501 63.6222 67.3588 62.0705 65.7481 62.7377C64.1917 63.3832 63.0822 66.7241 61.2931 66.7241C59.5039 66.7241 58.3945 63.3832 56.8381 62.7377C55.2258 62.0689 52.0836 63.6207 50.8686 62.4057C49.6536 61.1907 51.2053 58.0484 50.5381 56.4377C49.8926 54.8813 46.5517 53.7719 46.5517 51.9827C46.5517 50.1936 49.8926 49.0841 50.5381 47.5277C51.2069 45.9155 49.6551 42.7732 50.8701 41.5582C52.0852 40.3432 55.2274 41.895 56.8381 41.2277C58.3898 40.5822 59.5039 37.2413 61.2931 37.2413C63.0822 37.2413 64.1917 40.5822 65.7481 41.2277C67.3603 41.8965 70.5026 40.3448 71.7176 41.5598C72.9326 42.7748 71.3809 45.917 72.0481 47.5277C72.6936 49.0841 76.0345 50.1936 76.0345 51.9827Z" fill="#FF6B6B"/>
<path d="M61.2931 57.4138C64.2926 57.4138 66.7241 54.9823 66.7241 51.9828C66.7241 48.9833 64.2926 46.5518 61.2931 46.5518C58.2936 46.5518 55.8621 48.9833 55.8621 51.9828C55.8621 54.9823 58.2936 57.4138 61.2931 57.4138Z" fill="#FF1F3D"/>
</g>
<defs>
<clipPath id="clip0">
<rect width="90" height="90" fill="white"/>
</clipPath>
</defs>
</svg>

<svg width="90" height="90" fill="none" xmlns="http://www.w3.org/2000/svg"><g clip-path="url(#clip0)"><path d="M89.085 5.57a3.034 3.034 0 00-2.188-.915H3.104a3.034 3.034 0 00-2.188.916A3.034 3.034 0 000 7.759V72.93a3.034 3.034 0 00.916 2.188c.575.59 1.364.92 2.188.915h82.241A4.655 4.655 0 0090 71.38V7.76a3.034 3.034 0 00-.915-2.188z" fill="#F3D55B"/><path d="M90 7.759v63.62a4.644 4.644 0 01-1.366 3.29l-6.393-6.393V12.414l6.843-6.843c.59.575.92 1.364.916 2.188zM7.759 12.414v55.862L.915 75.119A3.034 3.034 0 010 72.93V7.759A3.034 3.034 0 01.915 5.57l6.844 6.843z" fill="#FDBF00"/><path d="M88.635 74.669a4.645 4.645 0 01-3.29 1.365H3.103a3.034 3.034 0 01-2.187-.915l6.843-6.843H82.24l6.394 6.393z" fill="#FF9F00"/><path d="M7.759 12.414H82.24v55.862H7.76V12.414z" fill="#ECF0F1"/><path d="M82.241 12.414s-74.482 0-74.482 55.862V12.414H82.24z" fill="#fff"/><path d="M55.862 23.276H34.138a1.552 1.552 0 110-3.104h21.724a1.552 1.552 0 010 3.104z" fill="#BDC3C7"/><path d="M40.345 57.414H18.62a1.552 1.552 0 110-3.104h21.724a1.552 1.552 0 110 3.104z" fill="#95A5A5"/><path d="M60.517 31.035H29.483a1.552 1.552 0 110-3.104h31.034a1.552 1.552 0 010 3.104z" fill="#BDC3C7"/><path d="M54.31 62.69v20.14a1.552 1.552 0 002.25 1.398l4.035-2.033c.44-.217.956-.217 1.396 0l4.035 2.033a1.552 1.552 0 002.25-1.397V62.69H54.31z" fill="#FF1F3D"/><path d="M40.345 51.207c-3.8 0-7.535-.98-10.845-2.846a21.826 21.826 0 01-10.88 2.846 1.552 1.552 0 110-3.104 18.81 18.81 0 008.051-1.77 7.37 7.37 0 01-2.847-5.097c0-.932.408-3.995 5.659-3.995 5.25 0 5.659 3.057 5.659 3.995a7.384 7.384 0 01-2.846 5.106 18.87 18.87 0 008.049 1.761 1.552 1.552 0 110 3.104zM29.483 40.345c-1.18 0-2.556.233-2.556.89 0 .658.697 1.984 2.543 3.405 1.651-1.263 2.569-2.584 2.569-3.404 0-.658-1.377-.891-2.556-.891z" fill="#95A5A5"/><path d="M76.034 51.983c0 1.789-3.34 2.898-3.986 4.455-.669 1.612.883 4.754-.332 5.97-1.215 1.214-4.357-.337-5.968.33-1.556.645-2.666 3.986-4.455 3.986-1.79 0-2.898-3.34-4.455-3.986-1.612-.67-4.754.883-5.97-.332-1.214-1.215.337-4.358-.33-5.968-.645-1.557-3.986-2.666-3.986-4.455 0-1.79 3.34-2.899 3.986-4.455.669-1.612-.883-4.755.332-5.97 1.215-1.215 4.357.337 5.968-.33 1.552-.646 2.666-3.987 4.455-3.987 1.79 0 2.899 3.341 4.455 3.987 1.612.669 4.755-.883 5.97.332 1.215 1.215-.337 4.357.33 5.968.646 1.556 3.986 2.666 3.986 4.455z" fill="#FF6B6B"/><path d="M61.293 57.414a5.43 5.43 0 100-10.862 5.43 5.43 0 000 10.862z" fill="#FF1F3D"/></g><defs><clipPath id="clip0"><path fill="#fff" d="M0 0h90v90H0z"/></clipPath></defs></svg>
